X: 4
M: C
L: 1/8
K: A
|:\
|:\
vA2u(cA) veAcA | c2cB c2cB | vA2u(cA) eAcA | B2BA B2cB |
vA2u(cA) veAcA | c2cB c2ce | f2f2 fefg | (af)ec A2cB :|


